X:524
T:Reel 524
M:4/4
K:Amix
L:1/8
EAGE EDB,D|EFDC B,G,G,F|EA,CA, G,A,B,D|EDB,D EA,A,2:|EAAd c2BA|GEED GABd|EAAB c2BA|GEDB, B,A,A,2|EAAB c2BA|GEEF GABd|edcB cBAG|EDED B,2A,2|
